public/icons/icon-arrow-right.svg

<svg width="16" height="16" viewBox="0 0 16 16" fill="none" xmlns="http://www.w3.org/2000/svg">
<path d="M15.3786 7.99552L12.5454 5.17188L11.6042 6.11627L12.8278 7.33575L0.621728 7.33441L0.621582 8.66775L12.8247 8.66908L11.6104 9.88749L12.5548 10.8287L15.3786 7.99552Z" fill="#E8F5FF"/>
</svg>

<svg viewBox="0 0 16 16" fill="none" xmlns="http://www.w3.org/2000/svg"><path d="m15.379 7.996-2.834-2.824-.94.944 1.223 1.22L.622 7.334v1.334l12.203.001-1.215 1.218.945.942 2.824-2.833z" fill="#E8F5FF"/></svg>
